static/assets/images/exchanges/nuri.svg

<svg width="360" height="256" viewBox="0 0 360 256" fill="none" xmlns="http://www.w3.org/2000/svg">
<path d="M160.136 27.0543C161.28 28.3594 161.446 29.8094 162.054 31.0376C162.628 32.1944 162.756 33.5667 163.767 34.8453C164.209 34.0536 164.59 33.5003 164.855 32.8918C167.359 27.1312 169.834 21.365 172.326 15.6045C174.216 11.2218 176.095 6.82862 178.018 2.45713C178.394 1.59892 178.67 0.64768 179.339 0C180.107 0.116107 180.239 0.674958 180.421 1.14008C183.903 10.0327 187.373 18.9359 190.849 27.8286C191.589 29.7242 192.343 31.6148 193.109 33.5003C193.263 33.8766 193.518 34.2137 193.882 34.8222C195.313 32.2882 195.883 29.6988 197.121 27.1088C197.772 27.867 197.861 28.5427 198.005 29.1673C199.076 34.0039 200.132 38.8405 201.198 43.6764C203.237 52.923 205.282 62.164 207.321 71.4106C208.807 78.1454 210.277 84.8908 211.774 91.6194C212.09 93.0253 212.134 94.3976 211.847 95.8195C208.92 110.213 206.01 124.609 203.116 139.009C201.099 149.075 199.137 159.146 197.126 169.212C194.711 181.269 192.263 193.321 189.849 205.379C188.373 212.755 186.926 220.131 185.467 227.508C183.786 236.013 182.113 244.518 180.427 253.018C180.273 253.792 180.051 254.55 179.88 255.27C179.118 255.397 179.067 254.91 178.979 254.5C178.001 249.913 177.012 245.331 176.062 240.738C173.393 227.829 170.752 214.919 168.088 202.009C165.579 189.879 163.038 177.755 160.534 165.62C157.766 152.196 155.036 138.76 152.268 125.33C150.216 115.364 148.136 105.404 146.029 95.4488C145.78 94.2808 145.803 93.1966 146.051 92.051C147.251 86.5177 148.405 80.9726 149.599 75.4393C152.395 62.4689 155.202 49.4978 157.998 36.5275C158.501 34.1913 158.976 31.851 159.484 29.5219C159.645 28.7749 159.877 28.044 160.148 27.0319L160.136 27.0543ZM359.517 135.29C357.859 137.432 356.146 138.705 354.599 140.121C343.84 149.965 333.032 159.76 322.256 169.582C314.549 176.61 306.867 183.665 299.164 190.693C289.301 199.685 279.421 208.654 269.563 217.652C261.926 224.625 254.307 231.619 246.675 238.597C244.653 240.445 242.636 242.304 240.57 244.097C239.917 244.661 239.149 245.187 238.343 245.475C228.783 248.906 219.207 252.287 209.631 255.673C209.238 255.812 208.819 255.862 208.377 255.956C208.205 254.97 208.829 254.528 209.227 254.008C212.178 250.146 215.151 246.294 218.118 242.448L255.517 193.924C265.988 180.339 276.465 166.766 286.908 153.158C287.765 152.04 288.721 151.404 290.124 151.094C296.937 149.594 303.723 147.984 310.514 146.402C321.267 143.9 332.021 141.383 342.774 138.882C347.763 137.719 352.748 136.569 357.743 135.423C358.158 135.329 358.6 135.357 359.517 135.296V135.29ZM0.232213 137.985C1.42546 138.223 2.63059 138.417 3.81334 138.699C15.4226 141.433 27.0263 144.189 38.6419 146.928C48.6159 149.28 58.5842 151.631 68.5694 153.916C70.0389 154.254 71.0727 154.935 72.0121 156.119C80.129 166.389 88.2964 176.615 96.4525 186.852C107.2 200.344 117.942 213.834 128.69 227.325C135.852 236.319 143.009 245.317 150.162 254.318C150.483 254.721 150.749 255.17 151.251 255.911C150.433 255.784 149.93 255.789 149.488 255.624C143.288 253.288 137.1 250.926 130.905 248.568C127.601 247.312 124.313 246.029 120.998 244.8C119.815 244.363 118.821 243.716 117.876 242.874C110.411 236.239 102.901 229.655 95.4188 223.042C84.8258 213.673 74.2496 204.283 63.6573 194.92C55.5116 187.721 47.3394 180.549 39.1888 173.35C32.4309 167.38 25.6946 161.387 18.9422 155.416C13.118 150.265 7.27765 145.124 1.45343 139.967C0.939345 139.513 0.48611 138.998 0 138.517C0.0769382 138.34 0.14898 138.168 0.226618 137.991L0.232213 137.985ZM159.418 255.928C158.711 255.037 157.993 254.163 157.302 253.261C146.427 239.083 135.564 224.906 124.689 210.73C110.322 191.993 95.9601 173.245 81.5657 154.525C80.3613 152.959 79.4548 151.316 78.9134 149.401C76.5318 140.973 74.0782 132.568 71.6414 124.157C68.4974 113.283 65.3478 102.41 62.1982 91.5362C61.5848 89.4113 60.9658 87.2864 60.3692 85.1615C60.2748 84.8349 60.2643 84.4865 60.2195 84.1879C60.8169 83.7451 61.1092 84.1767 61.3743 84.4537C62.8982 86.0549 64.4106 87.6669 65.9116 89.2896C74.1006 98.0934 82.2896 106.897 90.4842 115.702C90.7164 115.951 91.0151 116.128 91.2466 116.316C91.9488 116.084 91.7495 115.591 91.7166 115.187C91.4236 112.016 91.1088 108.845 90.8102 105.675C90.7717 105.249 90.8102 104.812 90.8102 104.346C91.7222 104.219 92.1587 104.844 92.6336 105.298C95.5237 108.032 98.3865 110.799 101.254 113.555C102.337 114.595 103.359 115.707 104.503 116.681C105.454 117.489 105.835 118.435 105.956 119.652C106.364 123.613 106.826 127.569 107.343 131.517C107.492 132.64 107.763 133.791 108.205 134.831C112.868 145.722 117.563 156.599 122.29 167.462C126.457 177.03 130.701 186.565 134.895 196.116C140.122 208.013 145.388 219.898 150.544 231.83C153.384 238.403 156.042 245.054 158.744 251.689C159.269 252.978 159.788 254.301 159.424 255.928H159.418ZM266.905 103.838C266.922 108.37 265.833 112.254 265.977 116.493C266.463 116.227 266.8 116.133 267.01 115.912C272.144 110.422 277.26 104.922 282.383 99.4217C286.721 94.7627 291.053 90.0974 295.401 85.4441C295.921 84.8852 296.446 84.2928 297.484 83.7787C297.297 84.7803 297.225 85.4553 297.037 86.1022C295.136 92.7371 293.224 99.3664 291.307 105.99C288.848 114.484 286.384 122.978 283.919 131.478C282.074 137.852 280.189 144.211 278.41 150.602C278.012 152.035 277.194 153.142 276.338 154.26C270.967 161.287 265.573 168.293 260.191 175.309C250.4 188.081 240.608 200.858 230.817 213.629C220.43 227.173 210.041 240.716 199.651 254.257C199.187 254.86 198.668 255.424 198.176 256C197.54 255.535 197.8 255.103 197.938 254.727C199.126 251.49 200.187 248.198 201.552 245.038C208.277 229.444 215.074 213.884 221.865 198.318C228.197 183.809 234.568 169.322 240.901 154.813C243.697 148.41 246.388 141.964 249.206 135.567C250.007 133.747 250.355 131.871 250.56 129.928C250.93 126.409 251.372 122.896 251.704 119.376C251.803 118.308 252.312 117.566 253.03 116.88C255.594 114.446 258.163 112.011 260.722 109.571C262.065 108.286 263.38 106.975 264.728 105.697C265.286 105.165 265.899 104.701 266.911 103.848L266.905 103.838ZM169.525 255.048C169.138 254.284 168.712 253.532 168.375 252.746C163.154 240.556 157.949 228.36 152.727 216.169C146.913 202.601 141.078 189.038 135.265 175.469C131.679 167.103 128.115 158.719 124.54 150.347C122.075 144.576 119.616 138.804 117.124 133.044C116.489 131.572 116.047 130.072 115.875 128.467C115.102 121.346 114.278 114.224 113.466 107.102C112.714 100.506 111.958 93.9157 111.2 87.3256C110.178 78.4497 109.145 69.5738 108.123 60.6924C107.769 57.6155 107.416 54.5387 107.084 51.4626C107.05 51.1471 107.128 50.8205 107.155 50.4883C108.111 50.433 108.239 51.1688 108.537 51.6451C111.057 55.7012 113.554 59.7684 116.041 63.8461C122.445 74.3384 128.822 84.8405 135.254 95.3159C136.243 96.9261 136.951 98.5914 137.337 100.434C138.769 107.274 140.232 114.108 141.68 120.942C144.084 132.275 146.477 143.607 148.88 154.94C150.809 164.026 152.743 173.112 154.666 182.199C156.987 193.188 159.275 204.178 161.607 215.167C164.253 227.629 166.928 240.08 169.586 252.536C169.752 253.305 169.851 254.086 169.983 254.86C169.834 254.926 169.68 254.987 169.531 255.054L169.525 255.048ZM250.599 50.6603C250.383 52.7684 250.195 54.8765 249.952 56.979C249.494 61.0246 248.991 65.0638 248.532 69.1087C247.731 76.1423 246.941 83.1807 246.145 90.2191L243.592 112.652C242.967 118.109 242.371 123.565 241.691 129.01C241.547 130.148 241.249 131.261 240.807 132.319C238.32 138.278 235.773 144.211 233.237 150.148C229.098 159.827 224.953 169.505 220.809 179.183C217.223 187.56 213.638 195.938 210.056 204.316C205.261 215.544 200.463 226.769 195.662 237.994C193.404 243.283 191.135 248.568 188.854 253.847C188.602 254.444 188.184 254.955 187.649 255.319C187.677 254.86 187.649 254.39 187.738 253.947C189.821 244.163 191.937 234.392 194.015 224.608C197.043 210.326 200.021 196.032 203.05 181.756C205.508 170.157 208.023 158.565 210.487 146.966C212.438 137.791 214.339 128.606 216.289 119.431C217.709 112.763 219.184 106.112 220.599 99.444C220.843 98.2928 221.285 97.2744 221.893 96.2784C230.209 82.6995 238.508 69.1087 246.814 55.5186C247.642 54.1568 248.449 52.7845 249.294 51.4339C249.51 51.0912 249.809 50.8037 250.074 50.4883C250.251 50.5491 250.428 50.61 250.599 50.6708V50.6603Z" fill="#DECFB1"/>
</svg>

<svg xmlns="http://www.w3.org/2000/svg" fill="none" viewBox="0 0 360 256"><path fill="#DECFB1" d="M160.136 27.054c1.144 1.305 1.31 2.755 1.918 3.984.574 1.156.702 2.529 1.713 3.807.442-.791.823-1.345 1.088-1.953 2.504-5.76 4.979-11.527 7.471-17.287 1.89-4.383 3.769-8.776 5.692-13.148.376-.858.652-1.81 1.321-2.457.768.116.9.675 1.082 1.14 3.482 8.893 6.952 17.796 10.428 26.689q1.11 2.843 2.26 5.671c.154.377.409.714.773 1.322 1.431-2.534 2.001-5.123 3.239-7.713.651.758.74 1.434.884 2.058 1.071 4.837 2.127 9.673 3.193 14.51 2.039 9.246 4.084 18.487 6.123 27.734 1.486 6.734 2.956 13.48 4.453 20.208.316 1.406.36 2.779.073 4.2a19242 19242 0 0 0-8.731 43.19c-2.017 10.066-3.979 20.137-5.99 30.203-2.415 12.057-4.863 24.109-7.277 36.167-1.476 7.376-2.923 14.752-4.382 22.129-1.681 8.505-3.354 17.01-5.04 25.51-.154.774-.376 1.532-.547 2.252-.762.127-.813-.36-.901-.77-.978-4.587-1.967-9.169-2.917-13.762-2.669-12.909-5.31-25.819-7.974-38.729-2.509-12.13-5.05-24.254-7.554-36.389-2.768-13.424-5.498-26.86-8.266-40.29a5542 5542 0 0 0-6.239-29.881c-.249-1.168-.226-2.252.022-3.398 1.2-5.533 2.354-11.078 3.548-16.612 2.796-12.97 5.603-25.941 8.399-38.911.503-2.337.978-4.677 1.486-7.006.161-.747.393-1.478.664-2.49zM359.517 135.29c-1.658 2.142-3.371 3.415-4.918 4.831-10.759 9.844-21.567 19.639-32.343 29.461-7.707 7.028-15.389 14.083-23.092 21.111-9.863 8.992-19.743 17.961-29.601 26.959-7.637 6.973-15.256 13.967-22.888 20.945-2.022 1.848-4.039 3.707-6.105 5.5-.653.564-1.421 1.09-2.227 1.378-9.56 3.431-19.136 6.812-28.712 10.198-.393.139-.812.189-1.254.283-.172-.986.452-1.428.85-1.948 2.951-3.862 5.924-7.714 8.891-11.56l37.399-48.524c10.471-13.585 20.948-27.158 31.391-40.766.857-1.118 1.813-1.754 3.216-2.064 6.813-1.5 13.599-3.11 20.39-4.692 10.753-2.502 21.507-5.019 32.26-7.52a4392 4392 0 0 1 14.969-3.459c.415-.094.857-.066 1.774-.127zM.232 137.985c1.193.238 2.399.432 3.581.714 11.61 2.734 23.213 5.49 34.829 8.229 9.974 2.352 19.942 4.703 29.927 6.988 1.47.338 2.504 1.019 3.443 2.203 8.117 10.27 16.284 20.496 24.44 30.733 10.748 13.492 21.49 26.982 32.238 40.473q10.743 13.491 21.472 26.993c.321.403.587.852 1.089 1.593-.818-.127-1.321-.122-1.763-.287-6.2-2.336-12.388-4.698-18.583-7.056-3.304-1.256-6.592-2.539-9.907-3.768-1.183-.437-2.177-1.084-3.122-1.926-7.465-6.635-14.975-13.219-22.457-19.832-10.593-9.369-21.17-18.759-31.762-28.122-8.145-7.199-16.318-14.371-24.468-21.57-6.758-5.97-13.494-11.963-20.247-17.934-5.824-5.151-11.664-10.292-17.489-15.449-.514-.454-.967-.969-1.453-1.45.077-.177.149-.349.227-.526zm159.186 117.943c-.707-.891-1.425-1.765-2.116-2.667-10.875-14.178-21.738-28.355-32.613-42.531-14.367-18.737-28.729-37.485-43.123-56.205-1.205-1.566-2.111-3.209-2.653-5.124-2.381-8.428-4.835-16.833-7.272-25.244q-4.717-16.31-9.443-32.62c-.613-2.126-1.232-4.25-1.829-6.376-.094-.326-.105-.674-.15-.973.598-.443.89-.011 1.155.266a467 467 0 0 1 4.538 4.836q12.282 13.204 24.572 26.412c.232.249.531.426.763.614.702-.232.502-.725.47-1.129-.293-3.171-.608-6.342-.907-9.512-.038-.426 0-.863 0-1.329.912-.127 1.349.498 1.824.952 2.89 2.734 5.752 5.501 8.62 8.257 1.083 1.04 2.105 2.152 3.249 3.126.951.808 1.332 1.754 1.453 2.971q.612 5.942 1.387 11.865c.149 1.123.42 2.274.862 3.314a6028 6028 0 0 0 14.085 32.631c4.167 9.568 8.411 19.103 12.605 28.654 5.227 11.897 10.493 23.782 15.649 35.714 2.84 6.573 5.498 13.224 8.2 19.859.525 1.289 1.044 2.612.68 4.239zm107.487-152.09c.017 4.532-1.072 8.416-.928 12.655.486-.266.823-.36 1.033-.581 5.134-5.49 10.25-10.99 15.373-16.49 4.338-4.66 8.67-9.325 13.018-13.978.52-.559 1.045-1.151 2.083-1.665-.187 1.001-.259 1.676-.447 2.323a7717 7717 0 0 1-5.73 19.888q-3.69 12.74-7.388 25.488c-1.845 6.374-3.73 12.733-5.509 19.124-.398 1.433-1.216 2.54-2.072 3.658-5.371 7.027-10.765 14.033-16.147 21.049-9.791 12.772-19.583 25.549-29.374 38.32a207782 207782 0 0 1-31.166 40.628c-.464.603-.983 1.167-1.475 1.743-.636-.465-.376-.897-.238-1.273 1.188-3.237 2.249-6.529 3.614-9.689 6.725-15.594 13.522-31.154 20.313-46.72 6.332-14.509 12.703-28.996 19.036-43.505 2.796-6.403 5.487-12.849 8.305-19.246.801-1.82 1.149-3.696 1.354-5.639.37-3.519.812-7.032 1.144-10.552.099-1.068.608-1.81 1.326-2.496 2.564-2.434 5.133-4.869 7.692-7.309 1.343-1.285 2.658-2.596 4.006-3.874.558-.532 1.171-.996 2.183-1.849zm-97.38 151.21c-.387-.764-.813-1.516-1.15-2.302-5.221-12.19-10.426-24.386-15.648-36.577-5.814-13.568-11.649-27.131-17.462-40.7-3.586-8.366-7.15-16.75-10.725-25.122-2.465-5.771-4.924-11.543-7.416-17.303-.635-1.472-1.077-2.972-1.249-4.577-.773-7.121-1.597-14.243-2.409-21.365q-1.128-9.893-2.266-19.776c-1.022-8.876-2.055-17.752-3.077-26.634-.354-3.077-.707-6.153-1.039-9.23-.034-.315.044-.642.071-.974.956-.055 1.084.68 1.382 1.157 2.52 4.056 5.017 8.123 7.504 12.201 6.404 10.492 12.781 20.995 19.213 31.47.989 1.61 1.697 3.275 2.083 5.118 1.432 6.84 2.895 13.674 4.343 20.508 2.404 11.333 4.797 22.665 7.2 33.998 1.929 9.086 3.863 18.172 5.786 27.259 2.321 10.989 4.609 21.979 6.941 32.968 2.646 12.462 5.321 24.913 7.979 37.369.166.769.265 1.55.397 2.324-.149.066-.303.127-.452.194zM250.599 50.66c-.216 2.108-.404 4.217-.647 6.319-.458 4.046-.961 8.085-1.42 12.13-.801 7.033-1.591 14.072-2.387 21.11l-2.553 22.433c-.625 5.457-1.221 10.913-1.901 16.358a12.7 12.7 0 0 1-.884 3.309c-2.487 5.959-5.034 11.892-7.57 17.829q-6.21 14.518-12.428 29.035-5.38 12.566-10.753 25.133a66774 66774 0 0 1-14.394 33.678 3956 3956 0 0 1-6.808 15.853 3.36 3.36 0 0 1-1.205 1.472c.028-.459 0-.929.089-1.372 2.083-9.784 4.199-19.555 6.277-29.339 3.028-14.282 6.006-28.576 9.035-42.852 2.458-11.599 4.973-23.191 7.437-34.79 1.951-9.175 3.852-18.36 5.802-27.535 1.42-6.668 2.895-13.319 4.31-19.987.244-1.151.686-2.17 1.294-3.166 8.316-13.579 16.615-27.17 24.921-40.76.828-1.361 1.635-2.733 2.48-4.084.216-.343.515-.63.78-.946q.267.091.525.183z"/></svg>
